assets/Clapper board/Flat/clapper_board_flat.svg

<svg width="32" height="32" viewBox="0 0 32 32" fill="none" xmlns="http://www.w3.org/2000/svg">
<path d="M27.21 30.0201H9.46004C8.54004 30.0201 6.79004 29.2701 6.79004 28.35V16.74L17.8825 14.8293L28.89 16.74V28.35C28.88 29.2701 28.14 30.0201 27.21 30.0201Z" fill="#6B438B"/>
<path d="M11.96 10.02L9.70792 9.00173L8.25 7.01L12.7766 5.81213L16.4261 5.88593L18.4398 4.3135L22.95 3.12L25.565 4.21237L26.66 6.12L22.1403 7.31911H18.4079L16.4811 8.82053L11.96 10.02Z" fill="#A4AEEB"/>
<path d="M24.5301 16.74L26.9913 14.7543L27.3401 12.88H22.6585L18.8457 14.2289L16.8128 12.88H12.1401L9.61252 14.7543L9.33008 16.74H14.0505L17.8925 15.6004L19.8475 16.74H24.5301Z" fill="#A4AEEB"/>
<path d="M26.66 6.12L22.95 3.12L27.16 2L28.15 5.73L26.66 6.12Z" fill="#635994"/>
<path d="M7.75002 11.14L6.22467 9.76244L6.77002 7.41001L8.25002 7.01001L11.96 10.02L7.75002 11.14Z" fill="#635994"/>
<path d="M18.45 4.31006L12.76 5.82006L16.46 8.83006L22.16 7.32006L18.45 4.31006Z" fill="#635994"/>
<path d="M28.88 16.74V12.88H27.34L24.53 16.74H28.88Z" fill="#635994"/>
<path d="M12.14 12.88L9.33004 16.74H6.79004V12.88H12.14Z" fill="#635994"/>
<path d="M22.69 12.88H16.8L13.99 16.74H19.88L22.69 12.88Z" fill="#635994"/>
<path d="M6.77 7.41003L7.75 11.14L4.99 11.87L4 8.14003L5.49 7.75003L6.77 7.41003Z" fill="#321B41"/>
<path d="M7.78993 12.88V28.35C7.78993 29.27 8.53993 30.02 9.45993 30.02H6.59993C5.67993 30.02 4.92993 29.27 4.92993 28.35V12.88H7.78993Z" fill="#321B41"/>
</svg>

<svg xmlns="http://www.w3.org/2000/svg" width="32" height="32" fill="none"><path fill="#6B438B" d="M27.21 30.02H9.46c-.92 0-2.67-.75-2.67-1.67V16.74l11.092-1.91 11.008 1.91v11.61c-.01.92-.75 1.67-1.68 1.67Z"/><path fill="#A4AEEB" d="M11.96 10.02 9.708 9.002 8.25 7.01l4.527-1.198 3.65.074 2.013-1.572 4.51-1.194 2.615 1.092L26.66 6.12l-4.52 1.2h-3.732l-1.927 1.5-4.521 1.2ZM24.53 16.74l2.461-1.986.35-1.874h-4.683l-3.812 1.349-2.033-1.349H12.14l-2.527 1.874-.283 1.986h4.72l3.842-1.14 1.956 1.14h4.682Z"/><path fill="#635994" d="m26.66 6.12-3.71-3L27.16 2l.99 3.73-1.49.39ZM7.75 11.14 6.225 9.762 6.77 7.41l1.48-.4 3.71 3.01-4.21 1.12ZM18.45 4.31l-5.69 1.51 3.7 3.01 5.7-1.51-3.71-3.01ZM28.88 16.74v-3.86h-1.54l-2.81 3.86h4.35ZM12.14 12.88l-2.81 3.86H6.79v-3.86h5.35ZM22.69 12.88H16.8l-2.81 3.86h5.89l2.81-3.86Z"/><path fill="#321B41" d="m6.77 7.41.98 3.73-2.76.73L4 8.14l1.49-.39 1.28-.34ZM7.79 12.88v15.47c0 .92.75 1.67 1.67 1.67H6.6c-.92 0-1.67-.75-1.67-1.67V12.88h2.86Z"/></svg>
